icons/extensions-sync-synced-symbolic.svg

<?xml version="1.0" ?>
<svg height="32px" version="1.1" viewBox="0 0 32 32" width="32px"
  xmlns="http://www.w3.org/2000/svg"
  xmlns:sketch="http://www.bohemiancoding.com/sketch/ns"
  xmlns:xlink="http://www.w3.org/1999/xlink">
  <title/>
  <defs/>
  <g fill="none" fill-rule="evenodd" id="Icons new Arranged Names" stroke="none" stroke-width="1">
    <g fill="#ffffff" id="27 Cloud">
      <path d="M0,19 C0,16.7828376 1.20753986,14.8416411 3.00211353,13.8029948 C3.10690617,8.92340284 7.0952729,5 12,5 C15.2334975,5 18.0687212,6.7052115 19.6554697,9.26543304 C20.2402063,9.09270499 20.8592769,9 21.5,9 C24.2845531,9 26.6601501,10.7509485 27.5858427,13.2118973 C30.129704,13.9074543 32,16.2353674 32,19 C32,22.3069658 29.3136299,25 25.9998243,25 L6.00017566,25 C2.68697795,25 0,22.3137085 0,19 Z M25.9725356,15 C25.7238035,12.7500155 23.8162709,11 21.5,11 C20.4427534,11 19.4706636,11.3645993 18.7026063,11.974922 C17.8340685,9.0963276 15.1618462,7 12,7 C8.13400656,7 5,10.1340066 5,14 C5,14.3757911 5.0296122,14.7446659 5.08663046,15.1044183 C3.31778819,15.5175755 2,17.1080834 2,19 C2,21.209139 3.79412025,23 5.99683887,23 L26.0031611,23 C28.2105543,23 30,21.2046438 30,19 C30,16.790861 28.2058797,15 26.0031611,15 Z M25.9725356,15" id="Rectangle 1 copy 2"/>
    </g>
  </g>
</svg>

<svg version="1.1" viewBox="0 0 16 16" xmlns="http://www.w3.org/2000/svg">
 <g id="Icons new Arranged Names" transform="matrix(.5 0 0 .5 0 .5)" style="fill-rule:evenodd;fill:#bebebe">
  <g id="27 Cloud" style="fill:#bebebe">
   <path d="m0 19c0-2.2172 1.2075-4.1584 3.0021-5.197 0.10479-4.8796 4.0932-8.803 8.9979-8.803 3.2335 0 6.0687 1.7052 7.6555 4.2654 0.58474-0.17273 1.2038-0.26543 1.8445-0.26543 2.7846 0 5.1602 1.7509 6.0858 4.2119 2.5439 0.69556 4.4142 3.0235 4.4142 5.7881 0 3.307-2.6864 6-6.0002 6h-20c-3.3132 0-6.0002-2.6863-6.0002-6zm25.973-4c-0.24873-2.25-2.1563-4-4.4725-4-1.0572 0-2.0293 0.3646-2.7974 0.97492-0.86854-2.8786-3.5408-4.9749-6.7026-4.9749-3.866 0-7 3.134-7 7 0 0.37579 0.029612 0.74467 0.086631 1.1044-1.7688 0.41316-3.0866 2.0037-3.0866 3.8956 0 2.2091 1.7941 4 3.9968 4h20.006c2.2074 0 3.9968-1.7954 3.9968-4 0-2.2091-1.7941-4-3.9968-4z" style="fill:#bebebe"/>
  </g>
 </g>
</svg>
